X:2673
L:1/8
Q:1/2=75
M:2/2
K:G
 G>AB>c d>Bc>B | A>Bc>d e/e/e e2 | G>AB>c e>fg>e | d>Bc>A G/G/G G2 |: B>GA>B A>FE>D | 
 B>GA>B E/E/E E2 | B>GA>B A>FE>D | d>Bc>A G/G/G G2 |:

